images/icon/sidebar_value.svg

<svg width="30" height="30" viewBox="0 0 30 30" fill="none" xmlns="http://www.w3.org/2000/svg">
<path d="M9.38357 15.0195C8.72321 15.0195 8.13623 15.5331 8.13623 16.2669C8.13623 16.9272 8.64984 17.5142 9.38357 17.5142C10.0439 17.5142 10.6309 17.0006 10.6309 16.2669C10.6309 15.5331 10.0439 15.0195 9.38357 15.0195ZM13.4191 10.9106C12.7587 10.9106 12.1717 11.4243 12.1717 12.158C12.1717 12.8183 12.6853 13.4053 13.4191 13.4053C14.1528 13.4053 14.6664 12.8917 14.6664 12.158C14.593 11.4976 14.0794 10.9106 13.4191 10.9106ZM17.3812 14.5793C16.7208 14.5793 16.1339 15.0929 16.1339 15.8266C16.1339 16.487 16.6475 17.074 17.3812 17.074C18.0416 17.074 18.6285 16.5603 18.6285 15.8266C18.6285 15.0929 18.0416 14.5793 17.3812 14.5793Z" stroke="#E60000" stroke-width="1.2" stroke-miterlimit="22.9256"/>
<path d="M10.4839 15.0929L12.3916 13.2585" stroke="#E60000" stroke-width="1.2" stroke-miterlimit="22.9256" stroke-linecap="round" stroke-linejoin="round"/>
<path d="M14.5195 13.1851L16.4272 14.946" stroke="#E60000" stroke-width="1.2" stroke-miterlimit="22.9256" stroke-linecap="round" stroke-linejoin="round"/>
<path d="M19.3623 9.88337L22.2972 9.29639L18.2617 14.9461" stroke="#E60000" stroke-width="1.2" stroke-miterlimit="22.9256" stroke-linecap="round" stroke-linejoin="round"/>
<path d="M22.2974 9.29639L22.6642 12.1579" stroke="#E60000" stroke-width="1.2" stroke-miterlimit="22.9256" stroke-linecap="round" stroke-linejoin="round"/>
<path d="M4.76074 5.40771H26.0388V20.5959H4.76074V5.40771Z" stroke="#544545" stroke-width="1.2" stroke-miterlimit="22.9256" stroke-linecap="round" stroke-linejoin="round"/>
<path d="M3 5.33423H27.8" stroke="#544545" stroke-width="1.2" stroke-miterlimit="22.9256" stroke-linecap="round" stroke-linejoin="round"/>
<path d="M15.3999 20.5959V27.1995" stroke="#544545" stroke-width="1.2" stroke-miterlimit="22.9256" stroke-linecap="round" stroke-linejoin="round"/>
<path d="M15.3999 5.33432V3.5" stroke="#544545" stroke-width="1.2" stroke-miterlimit="22.9256" stroke-linecap="round" stroke-linejoin="round"/>
<path d="M15.4731 23.9709L22.2968 28.2999" stroke="#544545" stroke-width="1.2" stroke-miterlimit="22.9256" stroke-linecap="round" stroke-linejoin="round"/>
<path d="M15.3266 23.9709L8.50293 28.2999" stroke="#544545" stroke-width="1.2" stroke-miterlimit="22.9256" stroke-linecap="round" stroke-linejoin="round"/>
</svg>

<svg width="30" height="30" fill="none" xmlns="http://www.w3.org/2000/svg"><path d="M9.384 15.02c-.66 0-1.248.513-1.248 1.247 0 .66.514 1.247 1.248 1.247.66 0 1.247-.513 1.247-1.247 0-.734-.587-1.247-1.247-1.247zm4.035-4.11c-.66 0-1.247.514-1.247 1.248 0 .66.513 1.247 1.247 1.247.734 0 1.247-.513 1.247-1.247-.073-.66-.587-1.247-1.247-1.247zm3.962 3.67c-.66 0-1.247.513-1.247 1.247 0 .66.514 1.247 1.247 1.247.66 0 1.247-.514 1.247-1.247 0-.734-.586-1.248-1.247-1.248z" stroke="#E60000" stroke-width="1.2" stroke-miterlimit="22.926"/><path d="M10.484 15.093l1.908-1.835m2.128-.073l1.907 1.761m2.935-5.063l2.935-.587-4.035 5.65m4.035-5.65l.367 2.862" stroke="#E60000" stroke-width="1.2" stroke-miterlimit="22.926" stroke-linecap="round" stroke-linejoin="round"/><path d="M4.76 5.408h21.28v15.188H4.76V5.408zM3 5.334h24.8M15.4 20.596V27.2m0-21.866V3.5m.073 20.47l6.824 4.33m-6.97-4.33L8.503 28.3" stroke="#544545" stroke-width="1.2" stroke-miterlimit="22.926" stroke-linecap="round" stroke-linejoin="round"/></svg>
